chrome/icons/language.svg

<svg height="16" viewBox="0 0 1024 960" width="16" xmlns="http://www.w3.org/2000/svg" xmlns:xlink="http://www.w3.org/1999/xlink">
  <path d="M233,628C199.333,619 168.333,604.583 140,584.75C111.667,564.917 87.0833,541.5 66.25,514.5C45.4167,487.5 29.1667,457.667 17.5,425C5.83333,392.333 0,358.667 0,324C0,294.333 3.75,265.667 11.25,238C18.75,210.333 29.3333,184.5 43,160.5C56.6667,136.5 73.1667,114.667 92.5,95C111.833,75.3334 133.333,58.4167 157,44.25C180.667,30.0834 206.25,19.1667 233.75,11.5C261.25,3.83337 290,0 320,0C364.333,0 405.917,8.33337 444.75,25C483.583,41.6667 517.5,64.5 546.5,93.5C575.5,122.5 598.333,156.417 615,195.25C631.667,234.083 640,275.667 640,320L576,320C576,309.333 575.333,298.667 574,288C572.667,277.333 570.667,266.667 568,256L445.5,256C446.167,266.667 446.75,277.333 447.25,288C447.75,298.667 448,309.333 448,320C448,341.667 447.083,362.833 445.25,383.5C443.417,404.167 441.167,425.167 438.5,446.5L438.5,448L266.5,448C268.167,457.667 270.083,467.083 272.25,476.25C274.417,485.417 276.833,494.667 279.5,504L279,504.5C271.333,525.167 263.667,545.75 256,566.25C248.333,586.75 240.667,607.333 233,628ZM266.5,192L373.5,192C372.167,185 370,174.917 367,161.75C364,148.583 360.25,135.25 355.75,121.75C351.25,108.25 346,96.0001 340,85C334,74.0001 327.5,67.0001 320.5,64L319.5,64C312.5,67.0001 306,74.0001 300,85C294,96.0001 288.75,108.25 284.25,121.75C279.75,135.25 276,148.583 273,161.75C270,174.917 267.833,185 266.5,192ZM98,192L201.5,192C207.5,153 217.667,115.5 232,79.5C203.667,89.8334 178,104.667 155,124C132,143.333 113,166 98,192ZM542,192C527,166 508,143.333 485,124C462,104.667 436.333,89.8334 408,79.5C422.333,115.5 432.5,153 438.5,192ZM72,256C69.3333,266.667 67.3333,277.333 66,288C64.6667,298.667 64,309.333 64,320C64,330.667 64.6667,341.333 66,352C67.3333,362.667 69.3333,373.333 72,384L194.5,384C193.833,373.333 193.25,362.667 192.75,352C192.25,341.333 192,330.667 192,320C192,309.333 192.25,298.667 192.75,288C193.25,277.333 193.833,266.667 194.5,256ZM381.5,256L258.5,256C257.833,266.667 257.25,277.333 256.75,288C256.25,298.667 256,309.333 256,320C256,330.667 256.25,341.333 256.75,352C257.25,362.667 257.833,373.333 258.5,384L381.5,384C382.167,373.333 382.75,362.667 383.25,352C383.75,341.333 384,330.667 384,320C384,309.333 383.75,298.667 383.25,288C382.75,277.333 382.167,266.667 381.5,256ZM1024,416L1024,512C1024,520.667 1020.83,528.167 1014.5,534.5C1008.17,540.833 1000.67,544 992,544C983.333,544 975.833,540.833 969.5,534.5C963.167,528.167 960,520.667 960,512L960,448L576,448L576,512C576,520.667 572.833,528.167 566.5,534.5C560.167,540.833 552.667,544 544,544C535.333,544 527.833,540.833 521.5,534.5C515.167,528.167 512,520.667 512,512L512,416C512,407.333 515.167,399.833 521.5,393.5C527.833,387.167 535.333,384 544,384L736,384C736,381.333 735.917,378.583 735.75,375.75C735.583,372.917 735.5,370 735.5,367C735.5,361.333 735.833,355.75 736.5,350.25C737.167,344.75 738.583,339.75 740.75,335.25C742.917,330.75 746.167,327.083 750.5,324.25C754.833,321.417 760.667,320 768,320C775.333,320 781.083,321.417 785.25,324.25C789.417,327.083 792.583,330.75 794.75,335.25C796.917,339.75 798.333,344.75 799,350.25C799.667,355.75 800,361.333 800,367L800,384L992,384C1000.67,384 1008.17,387.167 1014.5,393.5C1020.83,399.833 1024,407.333 1024,416ZM98.5,448C113.5,474 132.5,496.583 155.5,515.75C178.5,534.917 204,549.833 232,560.5C217.667,524.5 207.5,487 201.5,448ZM1024,672C1024,680.667 1020.83,688.167 1014.5,694.5C1008.17,700.833 1000.67,704 992,704L832,704L832,832C832,841 830.333,849.333 827,857C823.667,864.667 819.083,871.417 813.25,877.25C807.417,883.083 800.667,887.667 793,891C785.333,894.333 777,896 768,896L736,896C727.333,896 719.833,892.833 713.5,886.5C707.167,880.167 704,872.667 704,864C704,856.667 705.417,850.917 708.25,846.75C711.083,842.583 714.75,839.417 719.25,837.25C723.75,835.083 728.75,833.667 734.25,833C739.75,832.333 745.333,832 751,832L768,832L768,704L608,704C599.333,704 591.833,700.833 585.5,694.5C579.167,688.167 576,680.667 576,672C576,663.333 579.167,655.833 585.5,649.5C591.833,643.167 599.333,640 608,640L768,640C768,635.667 769.417,630.5 772.25,624.5C775.083,618.5 778.5,612.5 782.5,606.5C786.5,600.5 790.5,594.833 794.5,589.5C798.5,584.167 801.667,579.667 804,576L672,576C663.333,576 655.833,572.833 649.5,566.5C643.167,560.167 640,552.667 640,544C640,535.333 643.167,527.833 649.5,521.5C655.833,515.167 663.333,512 672,512L864,512C872.667,512 880.167,515.167 886.5,521.5C892.833,527.833 896,535.333 896,544C896,550.333 894.167,556.167 890.5,561.5L838.5,640L992,640C1000.67,640 1008.17,643.167 1014.5,649.5C1020.83,655.833 1024,663.333 1024,672ZM560,928C560,937 556.917,944.583 550.75,950.75C544.583,956.917 537,960 528,960C521.333,960 515.25,958.083 509.75,954.25C504.25,950.417 500.333,945.333 498,939L458,832L310,832L270,939C267.667,945.333 263.75,950.417 258.25,954.25C252.75,958.083 246.667,960 240,960C231.333,960 223.833,956.833 217.5,950.5C211.167,944.167 208,936.667 208,928C208,923.333 208.667,919.5 210,916.5L258,789.5C274.333,746.5 290.417,703.667 306.25,661C322.083,618.333 338,575.5 354,532.5C356.333,526.167 360.333,521.5 366,518.5C371.667,515.5 377.667,514 384,514C390.667,514 396.667,515.5 402,518.5C407.333,521.5 411.333,526.167 414,532.5C430,575.5 445.833,618.333 461.5,661C477.167,703.667 493.333,746.5 510,789.5L558,916.5C559.333,919.5 560,923.333 560,928ZM384,635L334,768L434,768Z" fill="context-fill" fill-opacity="context-fill-opacity">
  </path>
</svg>

<svg xmlns="http://www.w3.org/2000/svg" width="16" height="16" viewBox="0 0 1024 960"><path fill="context-fill" fill-opacity="context-fill-opacity" d="M233 628q-50.5-13.5-93-43.25T66.25 514.5 17.5 425 0 324q0-44.5 11.25-86T43 160.5 92.5 95A322 322 0 0 1 157 44.25Q192.5 23 233.75 11.5T320 0q66.5 0 124.75 25T546.5 93.5 615 195.25 640 320h-64q0-16-2-32a270 270 0 0 0-6-32H445.5a2053 2053 0 0 1 1.75 32q.75 16 .75 32 0 32.5-2.75 63.5a1765 1765 0 0 1-6.75 63v1.5h-172a470 470 0 0 0 5.75 28.25A621 621 0 0 0 279.5 504l-.5.5a24830 24830 0 0 1-23 61.75Q244.5 597 233 628m33.5-436h107q-2-10.5-6.5-30.25t-11.25-40T340 85t-19.5-21h-1Q309 68.5 300 85t-15.75 36.75-11.25 40-6.5 30.25M98 192h103.5q9-58.5 30.5-112.5Q189.5 95 155 124t-57 68m444 0q-22.5-39-57-68t-77-44.5q21.5 54 30.5 112.5ZM72 256a270 270 0 0 0-6 32 258 258 0 0 0-2 32q0 16 2 32a270 270 0 0 0 6 32h122.5a2053 2053 0 0 1-1.75-32 683 683 0 0 1 0-64 2053 2053 0 0 1 1.75-32Zm309.5 0h-123a2053 2053 0 0 0-1.75 32 683 683 0 0 0 0 64 2053 2053 0 0 0 1.75 32h123a2053 2053 0 0 0 1.75-32 683 683 0 0 0 0-64 2053 2053 0 0 0-1.75-32M1024 416v96c0 8.667-3.17 16.167-9.5 22.5q-9.495 9.5-22.5 9.5-13 0-22.5-9.5T960 512v-64H576v64q0 13-9.5 22.5T544 544t-22.5-9.5T512 512v-96q0-13 9.5-22.5T544 384h192q0-4-.25-8.25a149 149 0 0 1-.25-8.75q0-8.5 1-16.75t4.25-15 9.75-11T768 320t17.25 4.25 9.5 11 4.25 15 1 16.75v17h192q13.005 0 22.5 9.5c6.33 6.333 9.5 13.833 9.5 22.5M98.5 448q22.5 39 57 67.75T232 560.5q-21.5-54-30.5-112.5ZM1024 672c0 8.667-3.17 16.167-9.5 22.5q-9.495 9.5-22.5 9.5H832v128q0 13.5-5 25t-13.75 20.25T793 891t-25 5h-32q-13 0-22.5-9.5T704 864q0-11 4.25-17.25t11-9.5 15-4.25 16.75-1h17V704H608q-13 0-22.5-9.5T576 672t9.5-22.5T608 640h160q0-6.5 4.25-15.5t10.25-18 12-17T804 576H672q-13 0-22.5-9.5T640 544t9.5-22.5T672 512h192q13 0 22.5 9.5T896 544q0 9.5-5.5 17.5l-52 78.5H992q13.005 0 22.5 9.5c6.33 6.333 9.5 13.833 9.5 22.5M560 928q0 13.5-9.25 22.75T528 960q-10 0-18.25-5.75T498 939l-40-107H310l-40 107q-3.5 9.5-11.75 15.25T240 960q-13 0-22.5-9.5T208 928q0-7 2-11.5l48-127Q282.5 725 306.25 661T354 532.5q3.5-9.5 12-14t18-4.5q10 0 18 4.5t12 14Q438 597 461.5 661A7687 7687 0 0 0 510 789.5l48 127q2 4.5 2 11.5M384 635l-50 133h100Z"/></svg>
